assets/icons/24px/stroke/basketball-24px.svg

<svg width="24" height="24" viewBox="0 0 24 24" fill="none" xmlns="http://www.w3.org/2000/svg">
<path fill-rule="evenodd" clip-rule="evenodd" d="M12 4C7.58172 4 4 7.58172 4 12C4 16.4183 7.58172 20 12 20C16.4183 20 20 16.4183 20 12C20 7.58172 16.4183 4 12 4ZM2 12C2 6.47715 6.47715 2 12 2C17.5228 2 22 6.47715 22 12C22 17.5228 17.5228 22 12 22C6.47715 22 2 17.5228 2 12Z" fill="white"/>
<path fill-rule="evenodd" clip-rule="evenodd" d="M5.22695 19.2386C4.84831 18.8365 4.86728 18.2036 5.26933 17.825C6.8198 16.3648 7.78571 14.296 7.78571 12C7.78571 9.70405 6.8198 7.63528 5.26933 6.17505C4.86728 5.7964 4.84831 5.16352 5.22695 4.76147C5.6056 4.35942 6.23848 4.34045 6.64053 4.7191C8.57554 6.54148 9.78571 9.13023 9.78571 12C9.78571 14.8698 8.57554 17.4586 6.64053 19.281C6.23848 19.6596 5.6056 19.6406 5.22695 19.2386Z" fill="white"/>
<path fill-rule="evenodd" clip-rule="evenodd" d="M18.773 4.76142C19.1516 5.16347 19.1327 5.79635 18.7306 6.175C17.1801 7.63523 16.2142 9.704 16.2142 12C16.2142 14.2959 17.1801 16.3647 18.7306 17.8249C19.1327 18.2036 19.1516 18.8365 18.773 19.2385C18.3943 19.6406 17.7615 19.6595 17.3594 19.2809C15.4244 17.4585 14.2142 14.8698 14.2142 12C14.2142 9.13018 15.4244 6.54143 17.3594 4.71905C17.7615 4.3404 18.3943 4.35937 18.773 4.76142Z" fill="white"/>
<path fill-rule="evenodd" clip-rule="evenodd" d="M2 12C2 11.4477 2.44772 11 3 11H21C21.5523 11 22 11.4477 22 12C22 12.5523 21.5523 13 21 13H3C2.44772 13 2 12.5523 2 12Z" fill="white"/>
<path fill-rule="evenodd" clip-rule="evenodd" d="M12 2C12.5523 2 13 2.44772 13 3V20.3571C13 20.9094 12.5523 21.3571 12 21.3571C11.4477 21.3571 11 20.9094 11 20.3571V3C11 2.44772 11.4477 2 12 2Z" fill="white"/>
</svg>

<svg width="24" height="24" fill="none" xmlns="http://www.w3.org/2000/svg"><path fill-rule="evenodd" clip-rule="evenodd" d="M12 4a8 8 0 1 0 0 16 8 8 0 0 0 0-16zM2 12C2 6.477 6.477 2 12 2s10 4.477 10 10-4.477 10-10 10S2 17.523 2 12z" fill="#fff"/><path fill-rule="evenodd" clip-rule="evenodd" d="M5.227 19.239a1 1 0 0 1 .042-1.414A7.975 7.975 0 0 0 7.786 12a7.975 7.975 0 0 0-2.517-5.825 1 1 0 0 1 1.372-1.456A9.975 9.975 0 0 1 9.786 12c0 2.87-1.21 5.459-3.145 7.281a1 1 0 0 1-1.414-.042zM18.773 4.76a1 1 0 0 1-.042 1.414A7.975 7.975 0 0 0 16.214 12c0 2.296.966 4.365 2.517 5.825a1 1 0 0 1-1.372 1.456A9.975 9.975 0 0 1 14.214 12c0-2.87 1.21-5.459 3.145-7.28a1 1 0 0 1 1.414.041z" fill="#fff"/><path fill-rule="evenodd" clip-rule="evenodd" d="M2 12a1 1 0 0 1 1-1h18a1 1 0 1 1 0 2H3a1 1 0 0 1-1-1z" fill="#fff"/><path fill-rule="evenodd" clip-rule="evenodd" d="M12 2a1 1 0 0 1 1 1v17.357a1 1 0 1 1-2 0V3a1 1 0 0 1 1-1z" fill="#fff"/></svg>
